X:1
T:Laetatus sum
T:Richard Dering
T:Source : Cantica sacra---London---W.Godbid---1674. Editor : André Vierendeels (19/08/17).
T:Notes : Original clefs : G2, F4, F4
T:Laetatus sum
T:©
T:©
T:©
T:©
C:Richard Dering
Z:©
%%score [ 1 2 ] { 3 | 4 }
L:1/8
Q:1/4=120
M:2/2
K:C
V:1 treble nm="Soprano" snm="S"
V:2 bass nm="Bass" snm="B"
V:3 treble nm="Continuo" snm="BC"
V:4 bass 
V:1
 G4 B4- | B4 c4 | d8 | z8 | z8 | z2 c2 e4- | e2 d2 B3 c | d6 e2 | A8 | z2 B2 G3 A | ^F3 F G2 F2 | %11
w: Lae- ta-|* tus|sum,|||in his|_ quae dic- ta|sunt mi-|hi,|in his quae|dic- ta sunt mi-|
 E8 | D4 ^F4 | A4 ^F4 | B6 B2 | A4 z2 A2 | A6 ^G2 | A8 | z8 | z8 | z8 | z8 | z8 | z2 B2 B3 c | %24
w: |hi, in|Do- mum|Do- mi-|ni i-|bi- *|mus||||||In Do- mum|
 d6 d2 | ^F2 G4 F2 | G4 z2 d2- | d2 B2 c2 d2 | B2 e2 e4 | d8 | z8 | z4 z2 g2- | g2 ^f2 d2 e2 | %33
w: Do- mi-|ni i- bi-|mus, stan-|* tes e- rant|pe- des no-|stri,||stan-|* tes e- rant|
 ^f2 d2 e4 | d8 | z8 | z8 | z2 d2 cc B2 | A2 GA B2 A2 | G4 z2 c2 | BB A2 A2 ^G2 | A2 c2 ee d2 | %42
w: pe- des no-|stri,|||in a- tri- is|tu- is Hie- ru- sa-|lem, in|a- tri- is tu- *|is, in a- tri- is|
 c2 BB dd c2 | c2 B2 c2 B2 | dd c2 BB d2 | ff e2 d2 cB | A6 A2 | !fermata!G8 |] %48
w: tu- is, in a- tri- is|tu- * is, in|a- tri- is tu- is, in|a- tri- is tu- is Hie-|ru- sa-|lem|
V:2
 z8 | z8 | z4 G,4 | A,6 A,2 | G,4 E,4 | A,6 G,2 | E,2 F,2 G,4- | G,2 B,,2 B,,2 C,2 | D,2 C,2 D,4 | %9
w: ||Lae-|ta- tus|sum in|his quae|dic- ta sunt,|_ quae dic- ta|sunt mi- *|
 G,,4 z2 G,2 | D,3 D, B,,2 ^F,,2 | A,,8 | D,2 D,6 | z8 | z8 | z8 | z8 | z4 A,,4 | D,4 B,,4 | %19
w: hi, in|his quae dic- ta|sunt|mi- hi,|||||in|Do- mum|
 E,6 E,2 | ^F,6 G,A, | B,4 B,,4 | E,2 E,2 E,3 ^F, | G,6 G,2 | B,,8 | D,6 D,2 | G,,8 | z8 | z8 | %29
w: Do- mi-|ni i- *|* bi-|mus, in Do- mum|Do- mi-|ni|i- bi-|mus,|||
 z2 D,4 B,,2 |"^6" C,2 D,2 B,,2 G,,2 |"^4  3" D,4 G,,4 | z8 | z8 | z2 D4 B,2 | C2 D2 B,2 G,2 | %36
w: stan- tes|e- rant pe- ds|no- stri,|||stan- tes|e- rant pe- des|
 A,8 | D,4 z2 G,2 | ^F,F, E,2 D,4 | G,,2 G,2 ^F,F, E,2 | D,2 C,D, E,3 E, | A,,2 A,2 CC B,2 | %42
w: no-|stri in|a- tri- is tu-|is, in a- tri- is|tu- is Hie- ru- sa-|lem, in a- tri- is|
 A,2 G,G, F,2 E,F, | G,4 C,2 G,2 | B,B, A,2 G,2 ^F,E, | D,2 C,2 B,,2 A,,G,, | D,6 D,2 | %47
w: tu- is, in a- tri- is|tu- is, in|a- tri- is tu- is Hie-|ru- sa- lem, Hie- *|ru- sa-|
 !fermata!G,,8 |] %48
w: lem.|
V:3
 z8 | z8 | z8 | z8 | z8 | z8 | z8 | z8 | z8 | z8 | z8 | z8 | z8 | z8 | z8 | z8 | z8 | z8 | z8 | %19
 z8 | z8 | z8 | z8 | z8 | z8 | z8 | z8 | z8 | z8 | z8 | z8 | z8 | z8 | z8 | z8 | z8 | %36
"^7  5  6\n3  4  3" z8 | z8 | z8 | z8 | z8 | z8 | z8 | z8 | z8 | z8 | z8 | z8 |] %48
V:4
 G,8- | G,4 C,4 | G,4 G,4 |"^7  6" A,6 A,2 |"^6" G,4 E,4 | A,6 G,2 |"^6" E,3 F, G,4- | %7
 G,2 B,,2 B,,2 C,2 |"^4  3" D,8 | G,,4 G,,4 |"^6" D,3 D, B,,2 ^F,,2 |"^4  3" A,,8 | D,8 | D,8 | %14
 G,8 | D,8 |"^4  3" E,8 | A,,4 A,,4 | D,4 B,,4 | E,6 E,2 | ^F,6 G,A, |"^4  3" B,4 B,,4 | %22
 E,2 E,2 E,3 ^F, | G,6 G,2 | B,,8 |"^3  4  3" D,8 | G,,8 |"^6""^6" G,4 E,2 ^F,2 | %28
"^7""^4  3" G,2 E,2 A,4 | D,2 D,4 B,,2 | C,2 D,2 B,,2 G,,2 | D,4 G,,4 |"^7  5  6" G,8 | D,4 A,,4 | %34
 D,2 D4 B,2 |"^6" C2 D2 B,2 G,2 | A,8 |"^6" D,4 E,2 G,2 |"^6  5" ^F,2 E,2 D,4 | %39
"^6" G,,2 G,2 ^F,2 E,2 |"^6""^6""^4   3" D,2 C,D, E,4 | A,,2 A,2 C2 B,2 |"^6" A,2 G,2 F,2 E,F, | %43
"^4  3" G,4 C,2 G,2 |"^6" B,2 A,2 G,2 ^F,E, | D,2 C,2 B,,2 A,,G,, |"^4  3" D,8 | !fermata!G,,8 |] %48

